openmetadata-ui/src/main/resources/ui/src/assets/svg/ic-feed.svg

<svg width="40" height="40" viewBox="0 0 40 40" fill="none" xmlns="http://www.w3.org/2000/svg">
<circle cx="20" cy="20" r="20" fill="#2EAADC" fill-opacity="0.15"/>
<path d="M14.2269 12.1134V14.9736H10V25.1872C10 26.6756 11.2109 27.8866 12.6994 27.8866H27.3006C28.7891 27.8866 30 26.6756 30 25.1872V12.1134H14.2269ZM11.1719 25.1872V16.1455H14.2269V25.1872C14.2269 26.0294 13.5416 26.7147 12.6994 26.7147C11.8571 26.7147 11.1719 26.0294 11.1719 25.1872ZM28.8281 25.1872C28.8281 26.0294 28.1429 26.7147 27.3006 26.7147H14.9234C15.2229 26.28 15.3987 25.7538 15.3987 25.1872V14.9736V13.2853H28.8281V25.1872Z" fill="#2EAADC"/>
<path d="M22.6993 19.4141H16.5706V25.5428H22.6993V19.4141ZM21.5274 24.3709H17.7424V20.5859H21.5274V24.3709Z" fill="#2EAADC"/>
<path d="M16.5706 14.4572H27.6562V15.6291H16.5706V14.4572Z" fill="#2EAADC"/>
<path d="M24.0511 24.3709H27.6563V25.5428H24.0511V24.3709Z" fill="#2EAADC"/>
<path d="M24.0511 21.8925H27.6563V23.0644H24.0511V21.8925Z" fill="#2EAADC"/>
<path d="M24.0511 19.4141H27.6563V20.5859H24.0511V19.4141Z" fill="#2EAADC"/>
<path d="M16.5706 16.9356H27.6562V18.1075H16.5706V16.9356Z" fill="#2EAADC"/>
</svg>

<svg xmlns="http://www.w3.org/2000/svg" width="40" height="40" fill="none"><circle cx="20" cy="20" r="20" fill="#2EAADC" fill-opacity=".15"/><path fill="#2EAADC" d="M14.227 12.113v2.86H10v10.214c0 1.489 1.21 2.7 2.7 2.7h14.6c1.49 0 2.7-1.211 2.7-2.7V12.113H14.227Zm-3.055 13.074v-9.042h3.055v9.042a1.53 1.53 0 0 1-1.528 1.528 1.53 1.53 0 0 1-1.527-1.528Zm17.656 0a1.53 1.53 0 0 1-1.527 1.528H14.923c.3-.435.476-.961.476-1.528V13.285h13.43v11.902Z"/><path fill="#2EAADC" d="M22.7 19.414h-6.13v6.129h6.13v-6.129Zm-1.173 4.957h-3.785v-3.785h3.785v3.785ZM16.57 14.457h11.086v1.172H16.571v-1.172ZM24.051 24.37h3.605v1.173h-3.605V24.37ZM24.051 21.892h3.605v1.172h-3.605v-1.172ZM24.051 19.414h3.605v1.172h-3.605v-1.172ZM16.57 16.936h11.086v1.172H16.571v-1.172Z"/></svg>
